!! 00027] TT[TB
!! Eigene Aufnahme, Guangzhou, 5.5.87
!!!OTL: Xinjiang hao
!!!ARE: Xinjiang
!! Ethnic Group: Weiwuer
!! MM, S. 387  (Quelle S. Bandprotokoll)
!!!SCT: C0965
!!!YEM: Copyright 1995, estate of Helmut Schaffrath.
**kern
*ICvox
*Ivox
!! Mixed meters:  2/4; 3/4
*M3/4
*k[b-]
*F:
{8r
16f
16f
=1
8f
8g
8.a
16f
=2
8g
8g
16d
16r}
{16g
16a
=3
8b-
8cc
16dd
16ff
16dd
16cc}
=4
{8cc
24b-
24a
24b-
8g
16dd
16ff
=5
[2cc
=6
4cc]}
{8r
16cc
16cc
=7
8cc
16b-
16a
16.g
32b-
16a
16g
=8
8f
16g
16b-
16e-
16r}
{16e-
16d
=9
8c
8g
8f
8e-}
=10
{8d
16c
16f
16f
32e-
32f
16.d
32c
=11
[2c
=12
4c]}
{8r
16cc
16cc
=13
8cc
16b-
16a
16.g
32b-
16a
16g
=14
8f
16g
16b-
16e-
16r}
{16e-
16d
=15
8c
8g
8f
8e-}
=16
{8d
16c
16f
16f
32e-
32f
16.d
32c
=17
[2c
=18
4c]}
{16cc
16cc
8cc
8cc
16cc
16ff
=19
*M2/4
8ff
8ee-
8.dd
16cc
=20
4b-
8g}
{8cc
=21
8dd
16cc
16ff
16ff
32ee-
32ff
16.dd
32cc
=22
[2cc
=23
4cc]}
{8r
16cc
16cc
=24
8cc
16b-
16a
16.g
32b-
16a
16g
=25
8f
16g
16b-
16e-
16r}
{16e-
16d
=26
8c
8g
8f
8e-}
=27
{8d
16c
16f
16f
32e-
32f
16.d
32f
=28
[2c
=29
4c]}
{8r
16cc
16cc
=30
8cc
16b-
16a
16.g
32b-
16a
16g
=31
8f
16g
16b-
16e-
16r}
{16ee-
16dd
=32
8cc
8gg
8ff
8ee-}
=33
{8dd
16cc
16ff
16ff
32ee-
32ff
16.dd
32ff
=34
[2cc
=35
4cc]}
==
!!!AGN: NN
!! Die Saengerin Lei Huilan ist Angehoerige der Zhuang Minderheit und
!!    studiert an der Guangzhouer Musikhochschule.
!!    Aufgenommen am 5.5.87
!!    Angegeben ist der Notentext der 3. Strophe. Die letzten beiden Phrasen
!!    werden in der 1. und 2. Strophe eine Oktave tiefer gesungen.
!!    Wenig Verzierungen. Vorspiel weggelassen.
!!!ONB: ESAC (Essen Associative Code) Database: CHINA
!!!AMT: irregular
!!!AIN: vox
!!!EED: Helmut Schaffrath
!!!EEV: 1.0
*-
!!!ONB: Tied note syntax fixed by Craig Sapp, 2004/05/03/
